X: 21
T: PADDY McGINTY'S GOAT
S: "Community Dances Manual 6", EFDSS, Jack Hamilton ed., 1981 p.7
R: hornpipe
Z: 2010 John Chambers <jc:trillian.mit.edu>
M: 4/4
L: 1/8
K: G
"A"[|]d>c |\
"G"B2B>A G2G>A | "G"B>AB>c d2d>B | "Am(D)"c>dc>B A>AA>B | "Am"c>Bc>d "D7"e2d>c |
"G"B2B>A G2G>A | "G"B>AB>c d2d>B | "Am"c>cB>c "D"A>Ad>c | "G"(3BGG "C"G>G"G"G2 ||
"B"[|]B>d |\
"G"g2g>g d2d>d | "G"g2g>g d2d>e | "D"f>gf>e d>^cd>e | "A7"f>gf>e "D"d2d2 |
"C"e>eg>e "G"d>dg>d | "D7"c>Bc>d "G"B3B | "Am"c>cB>c "D7"A>Ad>c | "C"(3BGG G>G "G"G2 |]

%%sep 2 1 500
%%sep 1 1 500

